packages/core/src/svgs/tokens/branded/TEER.svg

<svg width="24" height="24" viewBox="0 0 24 24" fill="none" xmlns="http://www.w3.org/2000/svg">
<path d="M21.3124 5.12499C21.6875 5.12499 22 4.87501 22 4.5C22 4.125 21.6875 3.875 21.3124 3.875H2.6875C2.31249 3.875 2 4.125 2 4.5C2 4.87501 2.25 5.12499 2.625 5.12499H11.3749V19.5C11.3749 19.6658 11.4408 19.8247 11.5581 19.9418C11.6752 20.0591 11.8343 20.125 11.9999 20.125C12.1658 20.125 12.3247 20.0591 12.442 19.9418C12.5591 19.8247 12.625 19.6658 12.625 19.5V5.12499H21.3124Z" fill="#000563"/>
<path d="M8.87498 6.37506H2.625C2.26874 6.37506 2 6.61881 2 7.00006C2 7.38131 2.26874 7.62505 2.625 7.62505H8.24998V12.6251H3.31874C2.98125 12.6251 2.625 12.8876 2.625 13.2501C2.625 13.6125 2.91249 13.875 3.24999 13.875H8.24998V18.875H2.625C2.26874 18.875 2 19.1187 2 19.5001C2 19.8813 2.26874 20.125 2.625 20.125H8.87498C9.12499 20.125 9.28118 19.9751 9.39376 19.75C9.45618 19.6376 9.49993 19.5001 9.49993 19.35V7.15005C9.49993 6.9938 9.45618 6.8438 9.37495 6.72506C9.26251 6.51881 9.11245 6.37506 8.87498 6.37506ZM21.375 7.62505C21.7312 7.62505 22 7.38131 22 7.00006C22 6.61881 21.7312 6.37506 21.375 6.37506H15.1874C14.9437 6.37506 14.7375 6.51881 14.6249 6.72506C14.5437 6.85005 14.5 6.9938 14.5 7.15005V19.35C14.5 19.4938 14.5374 19.6313 14.6063 19.75C14.7187 19.9751 14.8749 20.125 15.125 20.125H21.375C21.7312 20.125 22 19.8813 22 19.5001C22 19.1187 21.7312 18.875 21.375 18.875H15.7499V13.875H20.7499C21.0874 13.875 21.375 13.6125 21.375 13.2501C21.375 12.8876 21.0874 12.6251 20.7499 12.6251H15.7499V7.62505H21.375Z" fill="#000563"/>
</svg>

<svg xmlns="http://www.w3.org/2000/svg" width="24" height="24" fill="none" viewBox="0 0 24 24">
    <path fill="#000563" d="M21.312 5.125c.375 0 .688-.25.688-.625s-.312-.625-.688-.625H2.688c-.376 0-.688.25-.688.625s.25.625.625.625h8.75V19.5a.624.624 0 1 0 1.25 0V5.125z"/>
    <path fill="#000563" d="M8.875 6.375h-6.25C2.269 6.375 2 6.62 2 7s.269.625.625.625H8.25v5H3.319c-.338 0-.694.263-.694.625 0 .363.287.625.625.625h5v5H2.625c-.356 0-.625.244-.625.625s.269.625.625.625h6.25c.25 0 .406-.15.519-.375a.8.8 0 0 0 .106-.4V7.15a.76.76 0 0 0-.125-.425c-.112-.206-.263-.35-.5-.35m12.5 1.25c.356 0 .625-.244.625-.625s-.269-.625-.625-.625h-6.188a.64.64 0 0 0-.562.35.77.77 0 0 0-.125.425v12.2c0 .144.037.281.106.4.113.225.269.375.519.375h6.25c.356 0 .625-.244.625-.625s-.269-.625-.625-.625H15.75v-5h5a.62.62 0 0 0 .625-.625.62.62 0 0 0-.625-.625h-5v-5z"/>
</svg>
